svg/UnitedNations-Flags/flag-tz.svg

<?xml version="1.0" encoding="UTF-8" standalone="no"?>
<svg height="256" id="svg2413" inkscape:output_extension="org.inkscape.output.svg.inkscape" inkscape:version="0.46" sodipodi:docname="flag-tz.svg" sodipodi:version="0.32" version="1.0" viewBox="0 0 144 96" width="256" xmlns="http://www.w3.org/2000/svg" xmlns:cc="http://creativecommons.org/ns#" xmlns:dc="http://purl.org/dc/elements/1.1/" xmlns:inkscape="http://www.inkscape.org/namespaces/inkscape" xmlns:rdf="http://www.w3.org/1999/02/22-rdf-syntax-ns#" xmlns:sodipodi="http://sodipodi.sourceforge.net/DTD/sodipodi-0.dtd" xmlns:svg="http://www.w3.org/2000/svg">
  <metadata>
    <rdf:RDF xmlns:cc="http://web.resource.org/cc/" xmlns:dc="http://purl.org/dc/elements/1.1/" xmlns:rdf="http://www.w3.org/1999/02/22-rdf-syntax-ns#">
      <cc:Work rdf:about="">
        <dc:title></dc:title>
        <dc:description></dc:description>
        <dc:subject>
          <rdf:Bag>
            <rdf:li>unsorted</rdf:li>
          </rdf:Bag>
        </dc:subject>
        <dc:publisher>
          <cc:Agent rdf:about="http://www.openclipart.org/">
            <dc:title>Open Clip Art Library, Source: Wikimedia Commons, Source: Wikimedia Commons, Source: Wikimedia Commons, Source: Wikimedia Commons</dc:title>
          </cc:Agent>
        </dc:publisher>
        <dc:creator>
          <cc:Agent>
            <dc:title></dc:title>
          </cc:Agent>
        </dc:creator>
        <dc:rights>
          <cc:Agent>
            <dc:title></dc:title>
          </cc:Agent>
        </dc:rights>
        <dc:date></dc:date>
        <dc:format>image/svg+xml</dc:format>
        <dc:type rdf:resource="http://purl.org/dc/dcmitype/StillImage"/>
        <cc:license rdf:resource="http://en.wikipedia.org/wiki/Public_domain"/>
        <dc:language>en</dc:language>
      </cc:Work>
    </rdf:RDF>
  </metadata>
  <defs id="defs2420">
    <inkscape:perspective id="perspective2424" inkscape:persp3d-origin="300 : 133.33333 : 1" inkscape:vp_x="0 : 200 : 1" inkscape:vp_y="0 : 1000 : 0" inkscape:vp_z="600 : 200 : 1" sodipodi:type="inkscape:persp3d"/>
  </defs>
  <sodipodi:namedview bordercolor="#666666" borderopacity="1.0" gridtolerance="10.0" guidetolerance="10.0" id="base" inkscape:current-layer="svg2413" inkscape:cx="213.21522" inkscape:cy="212.9908" inkscape:pageopacity="0.0" inkscape:pageshadow="2" inkscape:window-height="696" inkscape:window-width="872" inkscape:window-x="45" inkscape:window-y="190" inkscape:zoom="168.64968" objecttolerance="10.0" pagecolor="#ffffff" showgrid="false"/>
  <path d="M 0,0 L 144,0 L 0,96 L 0,0 z" id="green_triangle" style="fill:#1eb53a"/>
  <path d="M 0,96 L 144,96 L 144,0 L 0,96 z" id="blue_triangle" style="fill:#00a3dd"/>
  <path d="M 34.25376,95.995954 L 0,96.005388 L -0.0047168493,73.166403 L 109.74222,-0.0013626592 L 144.00541,0.012787889 L 144.01013,22.828188 L 34.25376,95.995954 z" id="path2383" style="fill:#fcd116;fill-rule:evenodd;stroke:none;stroke-width:1px;stroke-linecap:butt;stroke-linejoin:miter;stroke-opacity:1;fill-opacity:1"/>
  <path d="M 23.438024,95.995954 L -0.0047168493,96.010105 L -0.0047168493,80.373749 L 120.55795,-0.0013626592 L 144.00541,0.012787889 L 144.01013,15.620842 L 23.438024,95.995954 z" id="path3155" sodipodi:nodetypes="ccccccc" style="fill:#000000;fill-rule:evenodd;stroke:none;stroke-width:1px;stroke-linecap:butt;stroke-linejoin:miter;stroke-opacity:1;fill-opacity:1"/>
</svg>

<svg height="256" viewBox="0 0 144 96" width="256" xmlns="http://www.w3.org/2000/svg"><path d="m0 0h144l-144 96v-96" fill="#1eb53a"/><path d="m0 96h144v-96l-144 96" fill="#00a3dd"/><g fill-rule="evenodd"><path d="m34.25 96l-34.25.009-.005-22.839 109.75-73.17 34.26.014.005 22.815-109.76 73.17" fill="#fcd116"/><path d="m23.438 96l-23.443.014v-15.636l120.56-80.38 23.447.014.005 15.608-120.57 80.38"/></g></svg>
